X: 29227
T: New Hands
R: jig
M: 6/8
K: Eminor
f|:gfe fed|Bee Bee|g2 e fed|e2 bbef|
gfe fed|edB dBA|BAG AGF|1 DEE E2 f:|2 DEE E2 F||
|:GEE CEB,|(DE)E CEB,|(DE)E CEB,|(B,C)D (E/F/G)A|
GEE CEB,|(DE)E CEB,|(B,C)D (E/F/G)A|1 GFD E2F:|2 EFD E2 f||

